assets/features/global-acquiring/ovo.svg

<svg width="20" height="20" viewBox="0 0 20 20" fill="none" xmlns="http://www.w3.org/2000/svg">
<rect width="20" height="20" rx="4" fill="#4C2A86"/>
<path d="M9.93529 12.2939C9.89061 12.2878 9.84557 12.2859 9.80093 12.2787C9.58706 12.2443 9.41067 12.1449 9.27287 11.9775C9.16678 11.8487 9.09589 11.7006 9.03729 11.5459C8.98011 11.3949 8.9386 11.239 8.89376 11.0842C8.81661 10.8177 8.73951 10.5513 8.66241 10.2848C8.543 9.8722 8.42366 9.45957 8.30413 9.04703C8.28488 8.9806 8.25823 8.91769 8.21311 8.86407C8.15396 8.79376 8.07602 8.76209 7.98651 8.76066C7.8493 8.75849 7.71206 8.7596 7.57481 8.76007C7.55872 8.76011 7.55275 8.75794 7.55299 8.73947C7.55413 8.63903 7.55389 8.53856 7.55314 8.43808C7.55302 8.42234 7.55749 8.41862 7.57283 8.4187C7.72518 8.41926 7.87753 8.41894 8.02988 8.4191C8.13095 8.41922 8.2296 8.43207 8.32212 8.47628C8.4396 8.53243 8.51983 8.62428 8.57562 8.73983C8.61563 8.82271 8.63599 8.91207 8.66118 8.9997C8.74165 9.27954 8.82081 9.55974 8.9006 9.83973C9.03405 10.308 9.16702 10.7764 9.30146 11.2444C9.34171 11.3845 9.39165 11.5212 9.47026 11.6454C9.54732 11.7672 9.64597 11.8657 9.78697 11.9079C9.98187 11.9662 10.1717 11.9567 10.3459 11.84C10.4487 11.7711 10.5174 11.6721 10.573 11.5636C10.6372 11.4381 10.6785 11.3041 10.7168 11.1691C10.8171 10.8162 10.918 10.4635 11.0187 10.1108C11.1382 9.69212 11.2573 9.27333 11.3775 8.85489C11.4109 8.73852 11.4668 8.63448 11.5587 8.55279C11.6368 8.48339 11.7293 8.44535 11.8316 8.42867C11.8849 8.41997 11.9387 8.41937 11.9924 8.41922C12.1362 8.41882 12.28 8.41934 12.4238 8.41874C12.4393 8.41866 12.4436 8.42258 12.4435 8.4382C12.4427 8.53931 12.4426 8.64042 12.4435 8.74157C12.4437 8.75817 12.4378 8.76011 12.4237 8.76007C12.2917 8.7596 12.1597 8.75972 12.0277 8.75983C11.8861 8.75995 11.7864 8.82512 11.7273 8.95363C11.6924 9.02947 11.6742 9.11061 11.6511 9.19009C11.549 9.5404 11.4479 9.89098 11.3465 10.2414C11.2412 10.6051 11.1367 10.969 11.0305 11.3324C10.9806 11.5031 10.9197 11.6697 10.8298 11.8242C10.7401 11.9784 10.6247 12.1071 10.4646 12.1911C10.3626 12.2446 10.2535 12.2745 10.1393 12.2863C10.1133 12.2889 10.0873 12.2914 10.0614 12.294H9.93529V12.2939Z" fill="white"/>
<path d="M7.85701 7.90303C7.94827 7.90303 8.03956 7.90255 8.13082 7.90315C8.25118 7.90394 8.36977 7.91746 8.48495 7.95475C8.6919 8.02177 8.84567 8.15412 8.95836 8.3376C9.03974 8.4701 9.09177 8.61459 9.13448 8.76307C9.22558 9.07981 9.31695 9.39646 9.40841 9.71312C9.54518 10.1866 9.68219 10.66 9.81892 11.1334C9.83339 11.1836 9.84624 11.2343 9.86854 11.2817C9.88902 11.3253 9.91472 11.364 9.96585 11.3768C10.0187 11.39 10.0685 11.3723 10.1009 11.3279C10.1355 11.2805 10.1513 11.225 10.1673 11.1699C10.2742 10.7999 10.3805 10.4297 10.4874 10.0597C10.6038 9.65653 10.7208 9.25344 10.8372 8.85026C10.8727 8.7274 10.9064 8.60403 10.9595 8.48707C11.0187 8.35654 11.0934 8.23676 11.1988 8.13799C11.3154 8.02861 11.4537 7.96171 11.6093 7.92857C11.7008 7.90912 11.7935 7.90299 11.8867 7.90299C12.0653 7.90299 12.2439 7.90318 12.4225 7.90263C12.4385 7.90259 12.4435 7.90603 12.4434 7.92288C12.4425 8.02399 12.4425 8.1251 12.4434 8.22621C12.4435 8.24171 12.4387 8.244 12.4247 8.244C12.254 8.24364 12.0833 8.24186 11.9126 8.24479C11.7899 8.24689 11.6708 8.26982 11.5612 8.32913C11.4298 8.40019 11.3444 8.5117 11.2829 8.64433C11.2327 8.75263 11.205 8.86841 11.1716 8.98229C11.0629 9.35308 10.9544 9.72387 10.8459 10.0947C10.7405 10.4556 10.6358 10.8167 10.5297 11.1773C10.4939 11.2989 10.4529 11.4188 10.3879 11.5288C10.3381 11.6129 10.2743 11.6824 10.1817 11.7206C10.1176 11.747 10.0502 11.7551 9.98163 11.7533C9.87629 11.7507 9.78037 11.7217 9.70168 11.648C9.65186 11.6013 9.61505 11.5451 9.58389 11.4847C9.523 11.3669 9.48441 11.2408 9.44732 11.1142C9.33953 10.7465 9.23258 10.3786 9.12522 10.0109C9.00783 9.60864 8.89063 9.2063 8.77268 8.80424C8.73789 8.68557 8.6889 8.57351 8.61057 8.47611C8.52168 8.36559 8.40606 8.29896 8.26902 8.26757C8.19203 8.24993 8.11386 8.24349 8.03498 8.2436C7.88065 8.24384 7.72637 8.24345 7.57204 8.24408C7.55646 8.24416 7.55286 8.23993 7.55298 8.22478C7.55365 8.12434 7.55369 8.02387 7.55298 7.92339C7.55286 7.90734 7.5565 7.90243 7.57327 7.90259C7.66781 7.90346 7.76239 7.90299 7.85693 7.90299L7.85701 7.90303Z" fill="white"/>
<path d="M17.0001 9.9852C16.996 9.97852 16.9982 9.97112 16.9983 9.96412C16.9989 9.90707 16.9981 9.84989 16.9928 9.79318C16.9798 9.65312 16.9555 9.51488 16.9182 9.37914C16.8852 9.25928 16.8434 9.14259 16.7904 9.03006C16.736 8.91463 16.673 8.80411 16.5999 8.69944C16.5064 8.5654 16.3994 8.44313 16.2766 8.33518C16.1549 8.22818 16.0225 8.13636 15.8797 8.05937C15.7457 7.98709 15.6059 7.92924 15.4595 7.8876C15.2481 7.82746 15.0327 7.7957 14.8124 7.80053C14.7863 7.80132 14.7601 7.79895 14.734 7.80183C14.6099 7.80227 14.4867 7.81354 14.3642 7.83319C14.1267 7.87127 13.9013 7.94494 13.6887 8.05767C13.3312 8.24732 13.0545 8.51925 12.8583 8.87315C12.6677 9.21689 12.5828 9.58804 12.5721 9.97824C12.5681 10.122 12.5757 10.2652 12.5942 10.408C12.6152 10.5693 12.6513 10.7271 12.7057 10.8803C12.8121 11.1801 12.9742 11.4455 13.1988 11.6715C13.3728 11.8464 13.5735 11.9836 13.7972 12.0871C14.053 12.2053 14.3226 12.2686 14.6033 12.2865C14.6457 12.2892 14.6881 12.2915 14.7305 12.294H14.8487C14.8533 12.2904 14.8588 12.2921 14.8639 12.2921C14.9308 12.292 14.9975 12.2908 15.0643 12.2842C15.165 12.2741 15.2647 12.258 15.3632 12.2349C15.5542 12.1902 15.736 12.1217 15.9079 12.0268C16.0553 11.9455 16.1919 11.8493 16.3151 11.7349C16.4133 11.6436 16.5025 11.5439 16.5811 11.4347C16.6739 11.3057 16.7516 11.1682 16.8152 11.0229C16.8845 10.8646 16.9323 10.6996 16.9632 10.5297C16.9777 10.4496 16.9889 10.369 16.9941 10.2877C16.9972 10.238 16.9982 10.1882 16.9982 10.1383C16.9982 10.1319 16.9961 10.1252 17.0001 10.1192V9.98524L17.0001 9.9852ZM16.633 10.0969C16.6271 10.3964 16.5735 10.6857 16.4451 10.9587C16.2813 11.3069 16.03 11.5708 15.6864 11.7453C15.5251 11.8272 15.3544 11.8811 15.1762 11.9121C14.9924 11.9442 14.8073 11.9515 14.6216 11.9388C14.3482 11.9202 14.0877 11.8537 13.8459 11.7219C13.4929 11.5296 13.245 11.2431 13.0906 10.8738C13.0214 10.7081 12.9787 10.5356 12.9566 10.3576C12.9439 10.2559 12.9382 10.1539 12.9375 10.0516C12.9387 9.80904 12.9698 9.57123 13.0476 9.34054C13.1216 9.12073 13.231 8.92068 13.3821 8.74424C13.5189 8.58457 13.682 8.45768 13.8678 8.35974C14.057 8.25993 14.2587 8.19888 14.47 8.16962C14.6382 8.14633 14.8072 8.14261 14.9764 8.1576C15.3196 8.188 15.6352 8.295 15.9153 8.49904C16.1274 8.65354 16.2909 8.84951 16.4116 9.08178C16.5117 9.27431 16.5748 9.47866 16.6068 9.69306C16.6268 9.82703 16.6357 9.96167 16.633 10.0969L16.633 10.0969Z" fill="white"/>
<path d="M7.3904 9.61987C7.35193 9.38266 7.27917 9.15683 7.16759 8.94406C6.93513 8.50079 6.58896 8.17883 6.1295 7.98045C5.84817 7.85898 5.55241 7.8048 5.24668 7.80184C5.2175 7.80184 5.18832 7.80176 5.15914 7.80176C5.02715 7.80243 4.89627 7.81493 4.76615 7.83715C4.54302 7.87527 4.33069 7.94514 4.12975 8.04961C3.73762 8.25349 3.4438 8.55413 3.24436 8.94781C3.15567 9.12291 3.09252 9.30705 3.05243 9.49895C3.02139 9.64736 3.00273 9.79738 3 9.94914V10.155C3.00194 10.266 3.01396 10.3758 3.03147 10.4853C3.0686 10.7171 3.13898 10.9381 3.24606 11.1471C3.37425 11.3973 3.54293 11.6157 3.76028 11.7949C4.15481 12.1203 4.61198 12.2748 5.11964 12.2904C5.18306 12.2904 5.24644 12.2904 5.30987 12.2904C5.39326 12.2896 5.47605 12.2813 5.55869 12.2708C5.72986 12.2489 5.89668 12.2091 6.05797 12.1477C6.4043 12.0161 6.69884 11.8106 6.93225 11.522C7.24556 11.1345 7.39744 10.6866 7.42148 10.192C7.43081 10.0002 7.42116 9.80952 7.3904 9.61979V9.61987ZM6.95229 10.7541C6.87467 10.9872 6.75799 11.1982 6.59232 11.3805C6.35432 11.6423 6.059 11.8063 5.7165 11.8883C5.50516 11.9388 5.29069 11.9521 5.07417 11.9401C4.82819 11.9264 4.59158 11.8739 4.36746 11.7699C4.20171 11.693 4.05142 11.5929 3.91904 11.4665C3.68401 11.2423 3.53012 10.9699 3.44214 10.6589C3.39576 10.495 3.37294 10.3273 3.36575 10.1571C3.36025 10.027 3.36432 9.89742 3.37927 9.76832C3.42118 9.4067 3.54237 9.07601 3.77084 8.78913C3.96186 8.54927 4.2046 8.37987 4.49055 8.27148C4.64804 8.21177 4.81118 8.17666 4.97868 8.16013C5.12011 8.14617 5.26163 8.14502 5.40302 8.15764C5.76715 8.1901 6.09897 8.30829 6.38872 8.53515C6.57686 8.68248 6.72335 8.8645 6.83411 9.07573C6.93145 9.26134 6.99432 9.45822 7.02801 9.66487C7.04897 9.79335 7.05806 9.92257 7.05893 10.0371C7.0583 10.2917 7.02805 10.5265 6.95225 10.7541L6.95229 10.7541Z" fill="white"/>
<path d="M16.3968 9.49673C16.3245 9.23353 16.1975 8.99996 16.0093 8.80133C15.8665 8.6506 15.698 8.53573 15.5076 8.45328C15.35 8.38499 15.185 8.34423 15.0142 8.3258C14.8997 8.31342 14.7851 8.31125 14.6703 8.31698C14.5113 8.32493 14.3554 8.35122 14.2042 8.40172C13.8082 8.53407 13.5089 8.78228 13.3122 9.15176C13.2069 9.34955 13.1451 9.56082 13.1181 9.78293C13.1022 9.91362 13.099 10.0445 13.1054 10.1758C13.1139 10.3485 13.1431 10.5175 13.1977 10.6818C13.2716 10.9039 13.3848 11.1033 13.5446 11.2747C13.7301 11.4738 13.9549 11.6121 14.2136 11.6952C14.4234 11.7626 14.6391 11.7855 14.8589 11.7787C15.0042 11.7742 15.1473 11.7558 15.2877 11.7183C15.5484 11.6488 15.7796 11.5246 15.975 11.3373C16.1368 11.1823 16.2548 10.9973 16.3374 10.7897C16.4313 10.5536 16.4686 10.3071 16.4685 10.0541C16.4685 9.85099 16.4485 9.68526 16.3967 9.49669L16.3968 9.49673ZM16.0932 10.2385C16.0637 10.5172 15.971 10.7715 15.7907 10.9894C15.6393 11.1724 15.4471 11.2957 15.2217 11.3679C15.0615 11.4192 14.8967 11.4366 14.7292 11.4307C14.4705 11.4216 14.2303 11.3532 14.0156 11.2049C13.8169 11.0677 13.6766 10.8839 13.5837 10.6624C13.5018 10.467 13.4681 10.2625 13.4687 10.0629C13.4684 9.82841 13.5043 9.61219 13.5988 9.4087C13.7786 9.02107 14.0778 8.77832 14.4962 8.69133C14.7768 8.633 15.0543 8.65321 15.321 8.76428C15.5937 8.87785 15.7983 9.06749 15.936 9.32883C16.0211 9.49036 16.0699 9.6628 16.0906 9.84383C16.1056 9.97535 16.107 10.107 16.0931 10.2385H16.0932Z" fill="white"/>
<path d="M6.87838 9.77889C6.8594 9.62443 6.82425 9.47409 6.76735 9.32917C6.66814 9.0765 6.51959 8.85826 6.30994 8.68424C6.05183 8.46996 5.75207 8.35596 5.42025 8.32345C5.24599 8.30637 5.0719 8.31044 4.89855 8.33761C4.72762 8.36442 4.56396 8.4142 4.40944 8.49218C4.04796 8.67459 3.80111 8.96032 3.65454 9.33518C3.56719 9.55852 3.53046 9.79138 3.52816 10.0303C3.52718 10.1459 3.53449 10.2609 3.55137 10.3753C3.58071 10.5743 3.63987 10.7635 3.73433 10.9412C3.85888 11.1754 4.03056 11.367 4.25349 11.5121C4.4799 11.6595 4.72892 11.7416 4.99641 11.7692C5.15936 11.786 5.32235 11.784 5.48509 11.7629C5.68331 11.7371 5.87192 11.681 6.04945 11.5886C6.25139 11.4834 6.42256 11.3416 6.55842 11.1584C6.76628 10.8782 6.8656 10.5596 6.88921 10.2149C6.89917 10.0694 6.89617 9.92401 6.87838 9.77893V9.77889ZM6.38709 10.7202C6.22351 11.0622 5.95709 11.2822 5.5926 11.3836C5.43389 11.4277 5.27158 11.4383 5.10752 11.428C4.90761 11.4154 4.71841 11.3655 4.54277 11.2677C4.29339 11.1289 4.11929 10.9236 4.00945 10.6621C3.95492 10.5322 3.92139 10.3969 3.90605 10.257C3.88075 10.0258 3.89391 9.79767 3.962 9.57441C4.0308 9.34886 4.14804 9.1525 4.32273 8.99267C4.49568 8.83442 4.69856 8.73442 4.92837 8.68914C5.07474 8.66031 5.22239 8.65442 5.37062 8.6698C5.66844 8.70073 5.92846 8.81548 6.1417 9.02754C6.31287 9.19777 6.42062 9.40482 6.4793 9.63776C6.515 9.77948 6.52769 9.89977 6.52785 10.0522C6.5284 10.2849 6.48799 10.5091 6.38705 10.7202H6.38709Z" fill="white"/>
</svg>

<svg xmlns="http://www.w3.org/2000/svg" width="20" height="20" fill="none" viewBox="0 0 20 20"><rect width="20" height="20" fill="#4c2a86" rx="4"/><path fill="#fff" d="M9.935 12.294c-.044-.006-.09-.008-.134-.015a.83.83 0 0 1-.528-.302 1.5 1.5 0 0 1-.236-.431c-.057-.151-.098-.307-.143-.462l-.232-.8-.358-1.237a.5.5 0 0 0-.09-.183.29.29 0 0 0-.227-.103q-.207-.003-.412 0c-.016 0-.022-.003-.022-.022v-.3c0-.017.004-.02.02-.02h.457c.101 0 .2.013.292.057a.54.54 0 0 1 .254.264c.04.083.06.172.085.26l.24.84.4 1.404c.04.14.09.277.17.401a.57.57 0 0 0 .316.263.63.63 0 0 0 .559-.068.7.7 0 0 0 .227-.276c.064-.126.105-.26.144-.395l.302-1.058.358-1.256a.6.6 0 0 1 .182-.302.53.53 0 0 1 .273-.124q.08-.012.16-.01h.432q.021-.002.02.02v.303c0 .016-.006.018-.02.018h-.396a.31.31 0 0 0-.3.194c-.036.075-.054.157-.077.236l-.304 1.051-.316 1.091c-.05.171-.111.338-.201.492a.9.9 0 0 1-.365.367.9.9 0 0 1-.326.095l-.078.008z"/><path fill="#fff" d="M7.857 7.903h.274c.12 0 .239.014.354.052.207.067.36.2.473.383.082.132.134.277.176.425l.274.95.41 1.42c.015.05.028.101.05.149.021.043.047.082.098.095a.12.12 0 0 0 .135-.05c.034-.046.05-.102.066-.157l.32-1.11.35-1.21c.036-.123.07-.246.123-.363.059-.13.133-.25.239-.349a.84.84 0 0 1 .41-.21q.137-.027.278-.025h.535c.016 0 .021.003.021.02v.303c0 .016-.004.018-.018.018q-.257-.002-.512 0a.75.75 0 0 0-.352.085.65.65 0 0 0-.278.315c-.05.109-.078.224-.111.338q-.164.556-.326 1.113l-.316 1.082a1.5 1.5 0 0 1-.142.352.43.43 0 0 1-.206.192.5.5 0 0 1-.2.032.4.4 0 0 1-.28-.105.6.6 0 0 1-.118-.163 2 2 0 0 1-.137-.37l-.322-1.104-.352-1.207a.9.9 0 0 0-.162-.328.6.6 0 0 0-.342-.208 1 1 0 0 0-.234-.024h-.463q-.022.002-.019-.02v-.3c0-.017.003-.022.02-.021zM17 9.985q-.004-.01-.002-.02.001-.087-.005-.172a2.4 2.4 0 0 0-.075-.414 2.17 2.17 0 0 0-.641-1.044 2.1 2.1 0 0 0-.818-.447 2.2 2.2 0 0 0-.647-.087q-.039-.002-.078 0-.186.003-.37.032a2.2 2.2 0 0 0-.675.225q-.537.284-.83.815a2.4 2.4 0 0 0-.287 1.105q-.005.216.022.43.03.243.112.472.157.451.493.791.261.262.598.416.385.175.806.2l.127.007h.119q.007-.004.015-.002a2 2 0 0 0 .5-.057 2.1 2.1 0 0 0 .951-.5q.148-.137.266-.3a2.24 2.24 0 0 0 .413-1.147 2 2 0 0 0 .004-.15q-.002-.01.002-.019zm-.367.112a2.1 2.1 0 0 1-.188.862 1.64 1.64 0 0 1-.759.786 1.8 1.8 0 0 1-.51.167 2.3 2.3 0 0 1-.554.027 1.9 1.9 0 0 1-.776-.217 1.67 1.67 0 0 1-.755-.848 2 2 0 0 1-.134-.516 3 3 0 0 1-.02-.306 2.2 2.2 0 0 1 .11-.711q.11-.33.335-.597.206-.239.486-.384.284-.148.602-.19a2.2 2.2 0 0 1 .506-.012c.344.03.66.137.94.341q.316.233.496.583.148.289.195.611.03.201.026.404M7.39 9.62a2.2 2.2 0 0 0-.222-.676A2.07 2.07 0 0 0 6.13 7.98a2.3 2.3 0 0 0-.883-.178h-.088q-.198.001-.393.035a2.2 2.2 0 0 0-.636.213 2 2 0 0 0-.886.898q-.131.263-.192.551-.047.222-.052.45v.206a2.35 2.35 0 0 0 .246.992c.128.25.297.469.514.648.395.325.852.48 1.36.495h.19q.125-.002.249-.02.256-.03.499-.122c.346-.132.64-.337.874-.626a2.23 2.23 0 0 0 .49-1.33q.015-.288-.032-.572m-.438 1.134a1.68 1.68 0 0 1-1.236 1.134 2.2 2.2 0 0 1-.642.052 1.9 1.9 0 0 1-.707-.17 1.7 1.7 0 0 1-.448-.303 1.75 1.75 0 0 1-.477-.808 2.5 2.5 0 0 1-.063-.89 1.9 1.9 0 0 1 .392-.98c.19-.24.434-.41.72-.518.157-.06.32-.094.488-.11q.212-.023.424-.003c.364.032.696.15.986.377.188.147.334.33.445.54q.144.28.194.59c.021.128.03.258.03.372 0 .255-.03.49-.106.717"/><path fill="#fff" d="M16.397 9.497a1.6 1.6 0 0 0-.388-.696 1.5 1.5 0 0 0-.501-.348 1.7 1.7 0 0 0-.494-.127 2 2 0 0 0-.344-.009 1.7 1.7 0 0 0-.466.085 1.52 1.52 0 0 0-.892.75q-.155.298-.194.63-.023.197-.013.394.012.258.093.506a1.54 1.54 0 0 0 1.016 1.013c.21.068.425.09.645.084a2 2 0 0 0 .429-.06 1.52 1.52 0 0 0 1.049-.929c.094-.236.132-.483.131-.736 0-.203-.02-.369-.071-.557m-.304.742a1.4 1.4 0 0 1-.302.75 1.2 1.2 0 0 1-.57.379c-.16.051-.324.069-.492.063a1.3 1.3 0 0 1-.713-.226 1.2 1.2 0 0 1-.432-.543 1.5 1.5 0 0 1-.115-.6c0-.234.035-.45.13-.653.18-.388.479-.63.897-.718a1.4 1.4 0 0 1 .825.073q.409.172.615.565.126.242.155.515.023.197.002.395m-9.215-.46a1.8 1.8 0 0 0-.11-.45c-.1-.253-.248-.47-.458-.645a1.6 1.6 0 0 0-.89-.36 2 2 0 0 0-.521.014q-.257.038-.49.154a1.53 1.53 0 0 0-.754.843 2 2 0 0 0-.127.695q-.001.173.023.345.043.3.183.566.186.352.52.571.34.218.742.257.244.026.49-.006a1.7 1.7 0 0 0 .563-.174q.305-.157.51-.43c.207-.28.307-.6.33-.944a2.3 2.3 0 0 0-.01-.436m-.49.941q-.247.512-.795.664a1.5 1.5 0 0 1-.485.044c-.2-.013-.39-.062-.565-.16a1.2 1.2 0 0 1-.534-.606 1.7 1.7 0 0 1-.047-1.088c.069-.225.186-.421.36-.581q.262-.238.606-.304.22-.043.443-.02a1.24 1.24 0 0 1 1.108.969c.036.141.049.262.049.414 0 .233-.04.457-.14.668"/></svg>
